brandFactory_export/1.Light/Tienda _1Light.svg

<?xml version="1.0" encoding="UTF-8"?>
<svg width="24px" height="24px" viewBox="0 0 24 24" version="1.1" xmlns="http://www.w3.org/2000/svg" xmlns:xlink="http://www.w3.org/1999/xlink">
    <title>1.Light/Tienda _1Light</title>
    <g id="Symbols" stroke="none" stroke-width="1" fill="none" fill-rule="evenodd">
        <g id="1.Light/Tienda-_1Light" fill="#5CB615" fill-rule="nonzero">
            <path d="M20.0201681,12.0235294 C21.4420168,12.0235294 22.6420168,11.297479 22.6420168,10.4403361 C22.6420168,10.097479 22.4436975,9.82521008 22.2789916,9.65378151 L22.2756303,9.65042017 C22.0571429,9.42184874 21.8554622,8.8302521 21.287395,6.77310924 C21.1831933,6.38991597 21.092437,6.0605042 21.0352941,5.88235294 L19.5226891,1.08235294 C19.5092437,1.04537815 19.4722689,1.01848739 19.4319328,1.01848739 L4.19495798,1.06218487 C4.15462185,1.06218487 4.11764706,1.08571429 4.10420168,1.12268908 C3.89915966,1.77478992 3.59327731,2.76302521 3.26386555,3.82184874 C2.32941176,6.83697479 1.65714286,8.99495798 1.52941176,9.29411765 C1.4487395,9.47226891 1.35462185,9.64033613 1.24705882,9.80168067 C1.08235294,10.0638655 0.988235294,10.2184874 0.988235294,10.4336134 C0.988235294,11.2941176 2.18823529,12.0168067 3.61008403,12.0168067 C4.56470588,12.0168067 5.4487395,11.6907563 5.91596639,11.1697479 L6.06386555,11.005042 L6.35630252,10.9714286 C6.52436975,10.9714286 6.68235294,11.0420168 6.79663866,11.1697479 C7.26386555,11.6941176 8.14789916,12.0168067 9.10252101,12.0168067 C10.0470588,12.0168067 10.9277311,11.697479 11.3983193,11.1798319 L11.5462185,11.0184874 L11.8352941,10.9882353 C12,10.9882353 12.1546218,11.0588235 12.2655462,11.1798319 C12.7361345,11.697479 13.6168067,12.0168067 14.5613445,12.0168067 C15.5058824,12.0168067 16.3865546,11.697479 16.8571429,11.1798319 L17.0016807,11.0218487 L17.287395,10.9882353 L17.2907563,10.9882353 C17.4521008,10.9882353 17.610084,11.0554622 17.7210084,11.1764706 C18.194958,11.7008403 19.0756303,12.0201681 20.0201681,12.0235294 L20.0201681,12.0235294 Z M21.1630475,21.8991597 L21.1630475,12.8638655 C20.7865546,12.9546218 20.4033613,13.0016807 20.0168067,13.005042 C18.9512605,13.005042 17.9630252,12.6789916 17.287395,12.1243697 C16.6117647,12.6823529 15.6201681,13.005042 14.5546218,13.005042 C13.4890756,13.005042 12.5008403,12.6823529 11.8252101,12.1243697 C11.1529412,12.6823529 10.1613445,13.005042 9.09243697,13.005042 C8.02016807,13.005042 7.02184874,12.6756303 6.34621849,12.1109244 C5.67058824,12.6756303 4.67563025,13.005042 3.6,13.005042 C3.19663866,13.005042 2.81680672,12.9478992 2.45378151,12.8638655 L2.45378151,21.8957983 C2.45378151,22.3226891 2.8302521,22.6722689 3.2907563,22.6722689 L8.6789916,22.6722689 L8.6789916,16.6789916 C8.6789916,15.9764706 9.27058824,15.405042 9.99663866,15.405042 L13.6470588,15.405042 C14.3764706,15.405042 14.9680672,15.9764706 14.9680672,16.6789916 L14.9680672,22.6722689 L20.3294118,22.6722689 C20.789916,22.6722689 21.1663866,22.3260504 21.1630475,21.8991597 L21.1630475,21.8991597 Z M13.9831933,22.6722689 L13.9831933,16.6789916 C13.9831933,16.5176471 13.8319328,16.3865546 13.6470588,16.3865546 L10.0033613,16.3865546 C9.81848739,16.3865546 9.66722689,16.5176471 9.66722689,16.6789916 L9.66722689,22.6722689 L13.9831933,22.6722689 Z M23.6235294,10.4369748 C23.6235294,11.3042017 23.0453782,12.0504202 22.1478992,12.5142857 L22.1478992,21.8991597 C22.1478992,22.8672269 21.3310924,23.6571429 20.3294118,23.6571429 L3.29411765,23.6571429 C2.28907563,23.6571429 1.47226891,22.8672269 1.47226891,21.8991597 L1.47226891,12.5142857 C0.578151261,12.0537815 0,11.3042017 0,10.4369748 C0,9.92605042 0.228571429,9.56638655 0.410084034,9.27731092 C0.484033613,9.15966387 0.561344538,9.04201681 0.618487395,8.90756303 C0.736134454,8.63529412 1.65042017,5.68739496 2.31596639,3.53277311 C2.64537815,2.46722689 2.9512605,1.48235294 3.15966387,0.820168067 C3.30756303,0.376470588 3.71764706,0.0806722689 4.18487395,0.0773109244 L19.4252101,0.0335048051 C19.8823529,0.0268907563 20.3159664,0.332773109 20.4571429,0.783193277 L21.9697479,5.58655462 C22.0302521,5.77478992 22.1243697,6.11428571 22.2319328,6.51428571 C22.4302521,7.2302521 22.8369748,8.7092437 22.9983193,8.98823529 C23.4084034,9.41512605 23.6235294,9.91260504 23.6235294,10.4369748 Z" id="Tienda-_1Light"></path>
        </g>
    </g>
</svg>

<svg width="24" height="24" viewBox="0 0 24 24" xmlns="http://www.w3.org/2000/svg"><path d="M20.02 12.024c1.422 0 2.622-.727 2.622-1.584 0-.343-.198-.615-.363-.786l-.003-.004c-.219-.228-.42-.82-.989-2.877a26.277 26.277 0 00-.252-.89l-1.512-4.8a.098.098 0 00-.091-.065l-15.237.044a.095.095 0 00-.09.06c-.206.653-.512 1.641-.841 2.7-.935 3.015-1.607 5.173-1.735 5.472-.08.178-.174.346-.282.508-.165.262-.259.416-.259.632 0 .86 1.2 1.583 2.622 1.583.955 0 1.839-.326 2.306-.847l.148-.165.292-.034c.168 0 .326.071.44.199.468.524 1.352.847 2.307.847.944 0 1.825-.32 2.295-.837l.148-.162.29-.03c.164 0 .319.07.43.192.47.517 1.35.837 2.295.837.945 0 1.826-.32 2.296-.837l.145-.158.285-.034h.004c.161 0 .32.067.43.188.474.525 1.355.844 2.3.848zm1.143 9.875v-9.035a5.07 5.07 0 01-1.146.141c-1.066 0-2.054-.326-2.73-.88-.675.557-1.667.88-2.732.88-1.066 0-2.054-.323-2.73-.88-.672.557-1.664.88-2.733.88-1.072 0-2.07-.33-2.746-.894-.675.565-1.67.894-2.746.894-.403 0-.783-.057-1.146-.141v9.032c0 .427.376.776.837.776h5.388V16.68c0-.703.592-1.274 1.318-1.274h3.65c.73 0 1.321.571 1.321 1.274v5.993h5.361c.46 0 .837-.346.834-.773zm-7.18.773V16.68c0-.161-.151-.292-.336-.292h-3.644c-.185 0-.336.13-.336.292v5.993h4.316zm9.64-12.235c0 .867-.578 1.613-1.475 2.077V21.9c0 .968-.817 1.758-1.819 1.758H3.294c-1.005 0-1.822-.79-1.822-1.758v-9.385C.578 12.054 0 11.304 0 10.437c0-.51.229-.87.41-1.16.074-.117.151-.235.208-.37.118-.272 1.032-3.22 1.698-5.374.33-1.066.635-2.05.844-2.713.148-.444.558-.74 1.025-.743l15.24-.043c.457-.007.891.299 1.032.75l1.513 4.803c.06.188.154.527.262.927.198.716.605 2.195.766 2.474.41.427.626.925.626 1.449z" fill="#5CB615" fill-rule="nonzero"/></svg>
